client/filepreviewer/pdfjs/web/images/secondaryToolbarButton-rotateCw.svg

<svg width="16" height="16" viewBox="0 0 16 16" fill="none" xmlns="http://www.w3.org/2000/svg">
<path d="M12.5895 4.83613L11.23 6.19601C10.933 6.49201 11.143 7.00001 11.563 7.00001H15.138C15.398 7.00001 15.609 6.78901 15.609 6.52901V2.95401C15.609 2.53401 15.101 2.32401 14.804 2.62101L13.672 3.75328C12.3204 1.78973 10.0599 0.5 7.5 0.5C3.364 0.5 0 3.864 0 8C0 12.136 3.364 15.5 7.5 15.5C11.296 15.5 14.434 12.663 14.925 9H13.41C12.932 11.833 10.468 14 7.5 14C4.191 14 1.5 11.309 1.5 8C1.5 4.691 4.191 2 7.5 2C9.64738 2 11.5311 3.13503 12.5895 4.83613Z" fill="black"/>
</svg>

<svg xmlns="http://www.w3.org/2000/svg" width="16" height="16" fill="none"><path fill="#000" d="m12.59 4.836-1.36 1.36a.47.47 0 0 0 .333.804h3.575c.26 0 .471-.211.471-.471V2.954c0-.42-.508-.63-.805-.333l-1.132 1.132A7.483 7.483 0 0 0 7.5.5C3.364.5 0 3.864 0 8s3.364 7.5 7.5 7.5c3.796 0 6.934-2.837 7.425-6.5H13.41c-.478 2.833-2.942 5-5.91 5-3.309 0-6-2.691-6-6s2.691-6 6-6a5.99 5.99 0 0 1 5.09 2.836Z"/></svg>
